src/assets/filled/Broom.svg

<svg width="24" height="24" viewBox="0 0 24 24"  xmlns="http://www.w3.org/2000/svg">
<path d="M8.82005 4.90003L7.54005 2.78003C7.06005 2.00003 6.11005 1.56003 5.22005 1.82003C3.88005 2.22003 3.36005 3.73003 4.03005 4.84003L5.35005 7.01003C5.50005 7.24003 5.81005 7.32003 6.04005 7.18003L8.65005 5.59003C8.89005 5.44003 8.97005 5.13003 8.82005 4.90003Z" />
<path d="M19.7401 14.2098L16.9301 10.4098C15.9501 9.08984 14.2501 8.46984 12.6501 8.89984C12.6501 8.88984 12.6401 8.88984 12.6401 8.87984L10.9801 6.14984C10.6801 5.67984 10.0601 5.52984 9.59012 5.81984L6.12012 7.92984C5.64012 8.20984 5.49012 8.83984 5.78012 9.31984L7.43012 12.0498C7.43012 12.0498 7.43012 12.0598 7.44012 12.0598C6.33012 13.2898 6.09012 15.0798 6.83012 16.5698L8.91012 20.8098C9.55012 22.1198 11.0601 22.6198 12.3401 21.9598C12.4401 21.9098 12.4701 21.7898 12.4101 21.6898L10.8501 19.1098C10.6301 18.7498 10.7401 18.2898 11.1001 18.0598C11.4601 17.8498 11.9201 17.9598 12.1501 18.3098L13.7201 20.8898C13.7801 20.9798 13.9001 21.0098 13.9901 20.9598L14.9501 20.3798C15.0401 20.3198 15.0701 20.1998 15.0201 20.1098L13.4501 17.5298C13.2401 17.1698 13.3501 16.7098 13.7001 16.4798C14.0701 16.2698 14.5301 16.3798 14.7501 16.7298L16.3201 19.3098C16.3801 19.3998 16.5001 19.4298 16.5901 19.3798L17.5501 18.7998C17.6401 18.7398 17.6701 18.6198 17.6201 18.5298L16.0501 15.9498C15.8401 15.5898 15.9501 15.1298 16.3001 14.8998C16.6701 14.6898 17.1301 14.7998 17.3501 15.1498L18.9301 17.7198C18.9901 17.8098 19.1101 17.8398 19.2001 17.7798C20.3601 16.9498 20.6201 15.3898 19.7401 14.2098Z" />
</svg>

<?xml version="1.0" encoding="UTF-8"?>
<svg width="24" height="24" viewBox="0 0 24 24" xmlns="http://www.w3.org/2000/svg">
 <path d="m8.82 4.9-1.28-2.12c-0.48-0.78-1.43-1.22-2.32-0.96-1.34 0.4-1.86 1.91-1.19 3.02l1.32 2.17c0.15 0.23 0.46 0.31 0.69 0.17l2.61-1.59c0.24-0.15 0.32-0.46 0.17-0.69z"/>
 <path d="m19.74 14.21-2.81-3.8c-0.98-1.32-2.68-1.94-4.28-1.51 0-0.01-0.01-0.01-0.01-0.02l-1.66-2.73c-0.3-0.47-0.92-0.62-1.39-0.33l-3.47 2.11c-0.48 0.28-0.63 0.91-0.34 1.39l1.65 2.73s0 0.01 0.01 0.01c-1.11 1.23-1.35 3.02-0.61 4.51l2.08 4.24c0.64 1.31 2.15 1.81 3.43 1.15 0.1-0.05 0.13-0.17 0.07-0.27l-1.56-2.58c-0.22-0.36-0.11-0.82 0.25-1.05 0.36-0.21 0.82-0.1 1.05 0.25l1.57 2.58c0.06 0.09 0.18 0.12 0.27 0.07l0.96-0.58c0.09-0.06 0.12-0.18 0.07-0.27l-1.57-2.58c-0.21-0.36-0.1-0.82 0.25-1.05 0.37-0.21 0.83-0.1 1.05 0.25l1.57 2.58c0.06 0.09 0.18 0.12 0.27 0.07l0.96-0.58c0.09-0.06 0.12-0.18 0.07-0.27l-1.57-2.58c-0.21-0.36-0.1-0.82 0.25-1.05 0.37-0.21 0.83-0.1 1.05 0.25l1.58 2.57c0.06 0.09 0.18 0.12 0.27 0.06 1.16-0.83 1.42-2.39 0.54-3.57z"/>
</svg>
